assets/fc/fc-self-service-kiosk.svg

<svg xmlns="http://www.w3.org/2000/svg" width="100%" height="100%" viewBox="0 0 48 48"><path fill="#546E7A" d="M44 30H4V11c0-2.2 1.8-4 4-4h32c2.2 0 4 1.8 4 4v19z"/><path fill="#64B5F6" d="M40 27H8c-.6 0-1-.4-1-1V11c0-.6.4-1 1-1h32c.6 0 1 .4 1 1v15c0 .6-.4 1-1 1z"/><path fill="#78909C" d="M40 41H8c-2.2 0-4-1.8-4-4v-7h40v7c0 2.2-1.8 4-4 4z"/><g fill="#37474F"><path d="M27 34h12v2H27zM9 34h12v2H9z"/><path d="M18 35c0 1.1-1.3 2-3 2s-3-.9-3-2h6z"/></g></svg>

<svg xmlns="http://www.w3.org/2000/svg" width="100%" height="100%" viewBox="0 0 48 48"><path fill="#546E7A" d="M44,30H4V11c0-2.2,1.8-4,4-4h32c2.2,0,4,1.8,4,4V30z"/><path fill="#64B5F6" d="M40,27H8c-0.6,0-1-0.4-1-1V11c0-0.6,0.4-1,1-1h32c0.6,0,1,0.4,1,1v15C41,26.6,40.6,27,40,27z"/><path fill="#78909C" d="M40,41H8c-2.2,0-4-1.8-4-4v-7h40v7C44,39.2,42.2,41,40,41z"/><g fill="#37474F"><path d="M27 34H39V36H27zM9 34H21V36H9z"/><path d="M18,35c0,1.1-1.3,2-3,2s-3-0.9-3-2H18z"/></g></svg>
